icons/italic.svg

<svg xmlns="http://www.w3.org/2000/svg" width="24" height="24" viewBox="0 0 24 24">
    <path fill="#3A3A47" fill-rule="evenodd" d="M13 20H7c-.666 0-1-.333-1-.999 0-.665.334-.999 1-1.001h2l4-12h-2c-.662 0-.994-.334-.994-1 0-.668.332-1 .995-1h6.004c.663.04.995.374.995 1 0 .625-.332.958-.995 1h-2.003L11 18h2c.668 0 1.002.335 1.002 1.001 0 .667-.334 1-1.002.998z"/>
</svg>

<svg width="24" height="24" viewBox="0 0 24 24" fill="none" xmlns="http://www.w3.org/2000/svg">
<path fill-rule="evenodd" clip-rule="evenodd" d="M13 20H7C6.334 20 6 19.667 6 19.001C6 18.336 6.334 18.002 7 18H9L13 6H11C10.338 6 10.006 5.666 10.006 5C10.006 4.332 10.338 4 11.001 4H17.005C17.668 4.04 18 4.374 18 5C18 5.625 17.668 5.958 17.005 6H15.002L11 18H13C13.668 18 14.002 18.335 14.002 19.001C14.002 19.668 13.668 20.001 13 19.999V20Z" fill="#3A3A47"/>
</svg>
